app/dist/common/images/interface.svg

<svg height="18" viewBox="0 0 18 18" width="18" xmlns="http://www.w3.org/2000/svg"><path d="m0 9a9 9 0 1 1 18 0 9 9 0 1 1 -18 0z" fill="#037c9b"/><path d="m7 13h-2v-9h2zm2.81-6.16c.53-.53 1.74-.86 2.48-.84 1.14 0 1.71.74 1.71 1.88v5.12h-2v-4.41c0-.46 0-1.15-.99-1.15-.76 0-1.01.5-1.01 1.26v4.3h-2v-7h1.7z" fill="#fff"/></svg>

<!-- by TradingView --><svg width="18" height="18" viewBox="0 0 18 18" xmlns="http://www.w3.org/2000/svg"><path d="M0 9a9 9 0 1 1 18 0A9 9 0 1 1 0 9Z" fill="#037C9B"/><path d="M7 13H5V4h2v9Zm2.81-6.16c.53-.53 1.74-.86 2.48-.84C13.43 6 14 6.74 14 7.88V13h-2V8.59c0-.46 0-1.15-.99-1.15-.76 0-1.01.5-1.01 1.26V13H8V6h1.7l.11.84Z" fill="#fff"/></svg>
